X: 21
T: An Dro "Ur maligorn"
M: 2/2
L:1/4
R: An Dro
S: D. Shepherd
C: trad.
K: G
B/2|: B A G>A |B c A>B|B A G>A|1 B c A>B :|B c A2 ||
|:G B d>e|c d B>A |G B d>c|1A F G2 :|2 A F G z/2||
